assets/icons/icon_class_ldpi.svg

<svg width="30" height="30" viewBox="0 0 30 30" fill="none"
    xmlns="http://www.w3.org/2000/svg">
    <g clip-path="url(#clip0_116_163)">
        <path d="M29.7181 9.3636L23.5529 15.3084L22.2881 13.9679L26.9539 9.46861C27.4051 9.03344 27.4174 8.31542 26.9822 7.86417L22.8169 3.54467C22.606 3.32708 22.3222 3.20316 22.0195 3.19843C21.7196 3.1918 21.4291 3.30627 21.2116 3.51534L17.5344 7.06006L20.7272 10.3664C20.9883 10.6398 20.9675 11.0901 20.6941 11.3559C20.5021 11.5394 20.2211 11.5893 19.9827 11.5196L17.6668 9.06419L15.351 6.60881L21.4112 0.759602C21.7792 0.408631 22.3695 0.428497 22.7223 0.794604L29.7276 8.05621C30.0804 8.42137 30.0804 9.01074 29.7181 9.3636ZM8.7885 26.9878C8.57376 27.1969 8.28238 27.3114 7.9825 27.3038C7.68072 27.2981 7.39408 27.1742 7.18406 26.9595L3.01876 22.6381C2.58454 22.1868 2.59589 21.4754 3.04714 21.0365L4.96282 23.0269C5.22676 23.3003 5.66003 23.3079 5.93343 23.0468C6.20683 22.7857 6.21251 22.3533 5.94762 22.079L4.03478 20.0857L4.54468 19.5929L6.46036 21.5833C6.72241 21.8548 7.15568 21.8642 7.43097 21.6031C7.70342 21.3373 7.71005 20.9069 7.44516 20.6316L5.53043 18.644L6.04128 18.1511L7.95507 20.1396C8.219 20.4112 8.65417 20.4206 8.92568 20.1595C9.20097 19.8965 9.2057 19.4651 8.9427 19.1899L7.02702 17.2013L7.53693 16.7085L9.45261 18.6951C9.7156 18.9704 10.1489 18.9789 10.4232 18.715C10.5244 18.6166 10.5907 18.4936 10.6171 18.3668L7.07054 14.6017L0.283836 21.1415C-0.0794336 21.4943 -0.0794336 22.0856 0.271538 22.4498L7.27677 29.7162C7.62869 30.0813 8.22089 30.1012 8.58416 29.7464L15.2696 23.3022L14.0058 21.9617L8.7885 26.9878ZM21.029 9.13372C20.1454 8.22082 20.1719 6.75828 21.0876 5.87754C21.9986 4.99491 23.4602 5.0214 24.341 5.93525C25.2246 6.85004 25.1933 8.31258 24.2823 9.19143C23.3732 10.0741 21.9116 10.0476 21.029 9.13372ZM22.0176 8.18014C22.3733 8.5453 22.9598 8.55571 23.3306 8.2019C23.6967 7.84714 23.7071 7.25872 23.3514 6.89167C22.9967 6.52461 22.4083 6.51231 22.0412 6.86707C21.6742 7.22183 21.6628 7.81025 22.0176 8.18014ZM25.7382 19.976L19.7093 25.6568L6.27305 11.4004L12.3039 5.71955L25.7382 19.976ZM13.3152 9.69471C13.318 9.55848 13.2688 9.42415 13.1723 9.32387L12.5158 8.62949C12.3209 8.42232 11.9927 8.41191 11.7836 8.60774L11.4279 8.94168C11.2188 9.13656 11.2103 9.46766 11.4052 9.67389L12.0579 10.373C12.1554 10.4733 12.284 10.5338 12.4231 10.5348C12.5603 10.5404 13.1506 10.0589 13.1506 10.0589C13.2509 9.96337 13.3095 9.83282 13.3152 9.69471ZM22.6486 20.1378C22.8595 19.941 22.8671 19.6118 22.6694 19.4037L20.7823 17.4016C20.7823 17.4016 19.6322 16.1815 18.8952 15.3996C17.4214 13.836 15.1211 11.3956 15.1211 11.3956C15.0265 11.2935 14.8979 11.2348 14.7579 11.232C14.6226 11.2272 14.4873 11.2793 14.388 11.372L14.0313 11.7088C13.8222 11.9046 13.8128 12.2319 14.0096 12.441L21.5569 20.4499C21.6552 20.5502 21.782 20.6108 21.923 20.6145C22.0611 20.6193 22.1945 20.5672 22.2957 20.4726L22.6486 20.1378ZM5.66287 10.7505L11.6918 5.06775L10.1347 3.41601L4.10668 9.09966L5.66287 10.7505ZM1.41905 6.24459C1.09079 5.89646 0.916719 5.43764 0.929963 4.96085C0.9451 4.48501 1.1466 4.03659 1.49379 3.71022L4.91079 0.490934C5.62976 -0.192088 6.76498 -0.157086 7.44516 0.563777L9.56329 2.81056L3.53434 8.49138L1.41905 6.24459ZM2.49467 5.00815L3.60151 6.18499L7.25596 2.7415L6.14629 1.56655L2.49467 5.00815ZM28.7967 28.0909C28.8998 28.4182 28.8062 28.7749 28.5583 29.0095C28.3086 29.245 27.9472 29.3141 27.6284 29.1921L20.4727 26.4619L26.4951 20.7792L28.7967 28.0909ZM26.8848 25.6369L25.9795 22.762L22.4783 26.0645L25.2955 27.1392L26.8848 25.6369Z" fill="#3b1ea2"/>
        <path fill-rule="evenodd" clip-rule="evenodd" d="M29.7171 9.3558L23.5519 15.3005L22.2871 13.96L26.9528 9.4608C27.4041 9.02564 27.4164 8.30761 26.9812 7.85636L22.8159 3.53686C22.605 3.31928 22.3212 3.19535 22.0184 3.19062C21.7185 3.184 21.4281 3.29847 21.2105 3.50754L17.5334 7.05225L20.7262 10.3586C20.9873 10.632 20.9665 11.0823 20.6931 11.3481C20.501 11.5316 20.2201 11.5893 19.9817 11.5118L17.6658 9.05638L15.35 6.601L21.4101 0.751797C21.7781 0.400825 22.3685 0.420692 22.7213 0.786799L29.7266 8.0484C30.0794 8.41357 30.0794 9.00293 29.7171 9.3558ZM21.028 9.12591C20.1444 8.21301 20.1709 6.75047 21.0866 5.86973C21.9976 4.9871 23.4592 5.01359 24.3399 5.92744C25.2235 6.84224 25.1923 8.30477 24.2813 9.18362C23.3722 10.0663 21.9106 10.0398 21.028 9.12591ZM22.675 8.45C23.1859 8.45 23.6 8.03586 23.6 7.525C23.6 7.01413 23.1859 6.6 22.675 6.6C22.1641 6.6 21.75 7.01413 21.75 7.525C21.75 8.03586 22.1641 8.45 22.675 8.45Z" fill="#6366F1"/>
    </g>
    <path d="M7.97267 27.3021C8.27256 27.3097 8.56393 27.1952 8.77868 26.9861L13.9959 21.96L15.2598 23.3005L8.57434 29.7447C8.21107 30.0995 7.61886 30.0796 7.26695 29.7144L0.261711 22.4481C-0.0892602 22.0839 -0.0892603 21.4926 0.274009 21.1398L7.06071 14.6L10.6073 18.3651C10.5808 18.4919 10.5146 18.6149 10.4134 18.7132C10.139 18.9772 9.70577 18.9687 9.44278 18.6934L7.5271 16.7067L7.0172 17.1996L8.93288 19.1881C9.19587 19.4634 9.19114 19.8948 8.91585 20.1578C8.64434 20.4189 8.20918 20.4094 7.94524 20.1379L6.03145 18.1494L5.5206 18.6423L7.43534 20.6299C7.70022 20.9052 7.6936 21.3356 7.42115 21.6014C7.14586 21.8625 6.71258 21.8531 6.45054 21.5816L4.53486 19.5911L4.02496 20.084L5.9378 22.0773C6.20268 22.3516 6.197 22.7839 5.9236 23.045C5.65021 23.3061 5.21693 23.2986 4.953 23.0252L3.03732 21.0348C2.58607 21.4737 2.57472 22.1851 3.00894 22.6364L7.17424 26.9578C7.38425 27.1725 7.67089 27.2964 7.97267 27.3021Z" fill="#6366F1"/>
    <defs>
        <clipPath id="clip0_116_163">
            <rect width="30" height="30.0009" fill="white"/>
        </clipPath>
    </defs>
</svg>

<svg fill="none" xmlns="http://www.w3.org/2000/svg" viewBox="0 0 30 30"><g clip-path="url(#a)"><path d="m29.718 9.364-6.165 5.944-1.265-1.34 4.666-4.5a1.134 1.134 0 0 0 .028-1.604l-4.165-4.32a1.13 1.13 0 0 0-.797-.346 1.13 1.13 0 0 0-.808.317L17.534 7.06l3.193 3.306c.261.274.24.724-.033.99a.74.74 0 0 1-.711.164l-2.316-2.456L15.35 6.61 21.41.76a.934.934 0 0 1 1.311.036l7.006 7.261a.93.93 0 0 1-.01 1.308M8.788 26.988a1.12 1.12 0 0 1-.806.316 1.15 1.15 0 0 1-.798-.344L3.02 22.638a1.13 1.13 0 0 1 .028-1.602l1.916 1.99a.69.69 0 0 0 .97.02.68.68 0 0 0 .015-.967l-1.913-1.993.51-.493 1.915 1.99a.69.69 0 0 0 .971.02.686.686 0 0 0 .014-.971L5.53 18.644l.511-.493 1.914 1.989a.69.69 0 0 0 .97.02.683.683 0 0 0 .018-.97L7.027 17.2l.51-.492 1.916 1.986a.684.684 0 0 0 1.164-.328l-3.546-3.765-6.787 6.54a.933.933 0 0 0-.012 1.308l7.005 7.266a.927.927 0 0 0 1.307.03l6.686-6.444-1.264-1.34zM21.03 9.134a2.302 2.302 0 1 1 3.312-3.198 2.302 2.302 0 0 1-3.312 3.198m.989-.954a.934.934 0 0 0 1.313.022.928.928 0 0 0-1.29-1.335.93.93 0 0 0-.023 1.313m3.72 11.796-6.029 5.68L6.273 11.4l6.03-5.68zM13.315 9.695a.52.52 0 0 0-.143-.371l-.656-.695a.52.52 0 0 0-.732-.021l-.356.334a.52.52 0 0 0-.023.732l.653.699c.097.1.226.16.365.162.137.005.728-.476.728-.476a.53.53 0 0 0 .164-.364m9.334 10.443a.516.516 0 0 0 .02-.734l-1.887-2.002-1.887-2.002-3.774-4.004a.52.52 0 0 0-.733-.024l-.357.337a.517.517 0 0 0-.021.732l7.547 8.009a.52.52 0 0 0 .739.023zM5.663 10.75l6.029-5.682-1.557-1.652L4.107 9.1zM1.419 6.246a1.79 1.79 0 0 1 .075-2.535L4.91.49a1.79 1.79 0 0 1 2.534.074L9.563 2.81 3.534 8.49zm1.076-1.237 1.107 1.177 3.654-3.443-1.11-1.175zm26.302 23.083a.89.89 0 0 1-1.168 1.101l-7.156-2.73 6.022-5.683zm-1.912-2.454-.905-2.875-3.502 3.302 2.817 1.075z" fill="#3b1ea2"/><path fill-rule="evenodd" clip-rule="evenodd" d="M29.717 9.356 23.552 15.3l-1.265-1.341 4.666-4.5a1.134 1.134 0 0 0 .028-1.604l-4.165-4.32a1.13 1.13 0 0 0-.798-.345 1.13 1.13 0 0 0-.808.317l-3.677 3.544 3.193 3.307c.261.273.24.723-.033.99a.72.72 0 0 1-.711.163l-2.316-2.456L15.35 6.6 21.41.75a.934.934 0 0 1 1.311.036l7.006 7.261a.93.93 0 0 1-.01 1.308m-8.689-.23a2.302 2.302 0 1 1 3.312-3.198 2.302 2.302 0 0 1-3.312 3.198m1.647-.676a.925.925 0 1 0 0-1.85.925.925 0 0 0 0 1.85" fill="#6366F1"/></g><path d="M7.973 27.302c.3.008.59-.107.806-.316l5.217-5.026 1.264 1.34-6.686 6.445a.927.927 0 0 1-1.307-.03L.262 22.447a.933.933 0 0 1 .012-1.308l6.787-6.54 3.546 3.765a.683.683 0 0 1-1.164.328l-1.916-1.986-.51.493 1.916 1.988a.683.683 0 0 1-.017.97.69.69 0 0 1-.97-.02L6.03 18.149l-.51.493 1.914 1.988a.686.686 0 0 1-.014.971.69.69 0 0 1-.97-.02l-1.916-1.99-.51.493 1.913 1.993a.68.68 0 0 1-.014.968.69.69 0 0 1-.971-.02l-1.916-1.99a1.13 1.13 0 0 0-.028 1.601l4.165 4.322c.21.215.497.338.799.344" fill="#6366F1"/><defs><clipPath id="a"><path fill="#fff" d="M0 0h30v30.001H0z"/></clipPath></defs></svg>
